X: 1
T: String Quartet in G Major opus 64 no 4 mvt 1
C: Franz Joseph Haydn
%%abc-version 2.0
%%abcx-abcm2ps-target-version 5.9.1 (29 Sep 2008)
%%abc-creator hum2abc beta
%%abcx-conversion-date 2021/02/14 14:38:17
%%abc-copyright Copyright (c) 1994, 2000 Center for Computer Assisted Research in the Humanities
%%abc-edited-by Frances Bennion
%%abcx-initial-encoding-date 1997/04/15
%%gracespace 0 6 6
%%humdrum-veritas 2980552379
%%humdrum-veritas-data 1404163391
%%linebreak <none>
%%barnumbers 0
L: 1/8
M: 4/4
N: Derived from op64n4-01.krn
Q: "Allegro con brio"
%%staves [1 2 3 4]
V: 1
V: 2
V: 3 clef=alto
V: 4 clef=bass
K: G
[V:1]z7 B,/D/ [I:setbarnb1]|
[V:2]z7 z |
[V:3]z7 z |
[V:4]z7 z |
[V:1]G2 >B2 d3 g |
[V:2]zD DD zB Bd |
[V:3]zB, B,B, zG, GB |
[V:4]G,,2 z2 G,,2 z2 |
[V:1]g2 f/g/e/f/ dz2 c |
[V:2]c4- cz2 A |
[V:3]A4- Az2 D |
[V:4]zD, DE Fz2 F, |
[V:1]c2 BA GG AA |
[V:2]A2 GF EB, ^CC |
[V:3]D2 >B,2 B,B, G,G, |
[V:4]G,2 >^D,2 E,E, A,,A,, |
[V:1]Dz EE/F/ Dz2 B,/D/ |
[V:2]Dz ^CC Dz3 |
[V:3]F,z G,G, F,z3 |
[V:4]D,z A,,A,, D,z3 |
[V:1]G2 >B2 d2- d/g/b/g/ |
[V:2]zD DD zB Bd |
[V:3]zB, B,B, zG, GB |
[V:4]G,,2 z2 G,,2 z2 |
[V:1]g2 f/g/e/f/ dz2 c' |
[V:2]c4- cz2 a |
[V:3]A4- Az2 d |
[V:4]zD, DE Fz2 F, |
[V:1]c'2 bd' d'2 c'b/a/ |
[V:2]a2 g=f f2 ed/c/ |
[V:3]d2 >^G2 G2 A2 |
[V:4]G,2 >B,2 C3 C |
[V:1]gg aa/b/ gz A,A,/B,/ |
[V:2]BB cc/d/ Bz cc |
[V:3]BG FF Gz DD |
[V:4]DD D,D, G,z FF |
[V:1]G,z A,A,/B,/ G,G, A,A,/B,/ |
[V:2]Bz cc/d/ BB cc/d/ |
[V:3]Dz DD DD DD |
[V:4]Gz FF GG FF |
[V:1]G,z4 z ^d'd' |
[V:2]Bz EE/F/ ^Dz3 |
[V:3]Dz B2 cz cc |
[V:4]Gz G2 Az AA |
[V:1]e'z4 z ^c'c' |
[V:2]z2 E/F/G/E/ ^Cz3 |
[V:3]Bz BB Az AA |
[V:4]Gz GG Gz GG |
[V:1]d'z D/E/F/D/ E/F/G/E/ F/G/A/F/ |
[V:2]d8 |
[V:3]Az A,A, B,B, CC |
[V:4]Fz F,,F,, G,,G,, A,,A,, |
[V:1]G/A/B/G/ F/G/A/F/ E=F2 D |
[V:2]d7 =F |
[V:3]B,B, DD B,4 |
[V:4]B,,B,, A,,A,, G,,G,, ^G,,G,, |
[V:1]^C/E/A/^c/ e/c/d/B/ c/E/A/c/ e/c/d/B/ |
[V:2]E2 z^G A2 zG |
[V:3]A,2 zB,/D/ ^C2 zB,/D/ |
[V:4]A,,2 zE, A,2 zE, |
[V:1]^c/A/^G/A/ c/A/c/e/ g/f/e/d/ c/B/A/c/ |
[V:2]A2 z2 ^C2 EG |
[V:3]^C2 <z2 E2 GE |
[V:4]A,2 z2 A,4 |
[V:1]d2 >f2 a3 d' |
[V:2]FA AA zf fa |
[V:3]FF FF zd df |
[V:4]D,2 z2 D,2 z2 |
[V:1]d'2 ^c'b a^a bg |
[V:2]g2 >f2 e3 d |
[V:3]e2 >d2 ^c3 B |
[V:4]z8 |
[V:1]g2 fe d^c d^d |
[V:2]^c2 >B2 A/A,/G/A,/ F/A,/A/A,/ |
[V:3]A2 >G2 F/A,/E/A,/ D/A,/F/A,/ |
[V:4]z8 |
[V:1]e2 ^cB/A/ dc d^d |
[V:2]G/A,/G/A,/ G/A,/G/A,/ F/A,/G/A,/ F/A,/A/A,/ |
[V:3]E/A,/E/A,/ E/A,/E/A,/ D/A,/E/A,/ D/A,/F/A,/ |
[V:4]^C,2 z2 D,2 z2 |
[V:1]e2 ^cB/A/ f2 e/d/c/d/ |
[V:2]G/A,/G/A,/ G/A,/G/A,/ F/A,/F/A,/ F/A,/F/A,/ |
[V:3]E/A,/E/A,/ E/A,/E/A,/ D/A,/D/A,/ D/A,/D/A,/ |
[V:4]^C,2 z2 D,2 z2 |
[V:1]d'2 ^c'/b/a/^g/ a/a/c'/a/ d'/a/f/d/ |
[V:2]^G/B,/G/B,/ G/B,/G/B,/ A=G FF |
[V:3]D/B,/D/B,/ D/B,/D/B,/ A,E DD |
[V:4]B,,2 z2 A,,4- |
[V:1]A/a/^c'/a/ d'/a/f/d/ A2 z2 |
[V:2]EG FF E2 z2 |
[V:3]^CE DD C2 z2 |
[V:4]A,,A,, A,,A,, A,,2 z2 |
[V:1]za aa c'_b2 ^g- |
[V:2]zA AA c_B2 ^G- |
[V:3]=F4 D2 E2 |
[V:4]=F,4 D,2 E,2 |
[V:1]ga2 =f2 e2 ^c |
[V:2]GA2 =F2 E2 ^C |
[V:3]^C2 D2 G,2 A,2 |
[V:4]^C,2 D,2 G,,2 A,,2 |
[V:1]zd dd =f_e2 ^c- |
[V:2]zD DD =F_E2 ^C- |
[V:3]_B,4 G,2 A,2 |
[V:4]_B,,4 G,,2 A,,2 |
[V:1]cd2 _B2 A2 ^G |
[V:2]CD2 _B,2 A,2 ^G, |
[V:3]F,2 G,2 z4 |
[V:4]F,,2 G,,2 A,,2 B,,2 |
[V:1]G/A,/^C/E/ G/A,/G/_B,/ G/A,/C/E/ G/A,/G/B,/ |
[V:2]A,2 z_B, A,2 zB, |
[V:3]E,2 >=F,2 E,3 F, |
[V:4]^C,2 >D,2 C,3 D, |
[V:1]G/A,/G/_B,/ G/A,/G/B,/ G/A,/^C/E/ A/^c/e/G/ |
[V:2]A,_B, A,B, A,4- |
[V:3]E,=F, E,F, E,4 |
[V:4]^C,D, C,D, C,4 |
[V:1]F/A/d/f/ a/^g/b/g/ a/A/d/f/ a/g/b/g/ |
[V:2]A,z F^E Fz FE |
[V:3]F,z DD Dz DD |
[V:4]D,2 z6 |
[V:1]a/A/d/f/ a/^g/b/g/ a/f/d'/d'/ d'd' |
[V:2]Fz F^E Fz ^AA |
[V:3]Dz DD Dz DD |
[V:4]z6 F,F, |
[V:1]d'b bb bg gg |
[V:2]^AB ^DD DE ee |
[V:3]Dz BB Bz B,B, |
[V:4]G,z G,G, G,z G,G, |
[V:1]fa ^ce d2 zA, |
[V:2]dF GE D2 z2 |
[V:3]A,F EG, F,4- |
[V:4]A,2 A,,2 D,,4- |
[V:1]FF DD ^C>E GE/C/ |
[V:2]A,8- |
[V:3]F,4 G,4 |
[V:4]D,,8- |
[V:1]D>F AA A/G/G/F/ F/E/E/A/ |
[V:2]A,4 B,4- |
[V:3]F,4 D,4- |
[V:4]D,,2 >F,,2 G,,4- |
[V:1]A/G/G/F/ F/E/E/A/ A/G/G/F/ F/E/E/B/ |
[V:2]B,4 B,4 |
[V:3]D,4 ^D,3 E, |
[V:4]G,,4 G,,4 |
[V:1]B4 D2 ED/E/ |
[V:2]D6 ^C2 |
[V:3]=F,4 ^F,2 G,2 |
[V:4]^G,,4 A,,4 |
[V:1]Dz ED/E/ DD ED/E/ |
[V:2]Dz aa az aa |
[V:3]F,z ^cc dd cc |
[V:4]D,z GG FF GG |
[V:1]Dz ED/E/ Dz3 |
[V:2]az aa az3 |
[V:3]dz ^cc dz3 |
[V:4]Fz GG Fz2 A,, |
[V:1]z8 |
[V:2]z7 A, |
[V:3]z2 >A,2 GG E^C |
[V:4]F,F, D,D, ^C,>E, G,E, |
[V:1]z7 B, |
[V:2]AA FE ^D>F BA/F/ |
[V:3]F2 zA, AA/F/ ^DD |
[V:4]D,2 >C,2 B,,4 |
[V:1]GG EE ^D>F AF/D/ |
[V:2]G2 zB, AA/F/ ^DF |
[V:3]E2 z2 F2 zA, |
[V:4]E,2 z2 B,,2 z2 |
[V:1]E/G/B/e/ g/b/g/e/ B/G/E/G/ F/B/A/B/ |
[V:2]G2 z2 >G2 AF |
[V:3]G,2 z2 >B,2 B,B, |
[V:4]E,2 z2 >E,2 ^D,D, |
[V:1]E/G/B/e/ g/b/g/e/ B/G/E/G/ F/B/A/B/ |
[V:2]G2 z2 >G2 AF |
[V:3]B,2 z2 >B,2 B,B, |
[V:4]E,2 z2 >E,2 ^D,D, |
[V:1]E/e/G/e/ E/e/G/e/ E/d/=F/d/ E/d/^G/d/ |
[V:2]G2 z2 B2 z2 |
[V:3]B,2 z2 D2 z2 |
[V:4]E,2 z2 ^G,,2 z2 |
[V:1]A,/^C/E/A/ ^c/e/c/A/ E/C/A,/C/ B,/E/D/E/ |
[V:2]E2 z2 >^C2 DB, |
[V:3]^C2 z2 >E,2 E,E, |
[V:4]A,,2 z2 >A,,2 ^G,,G,, |
[V:1]A,/^C/E/A/ ^c/e/c/A/ E/C/A,/C/ B,/E/D/E/ |
[V:2]^C2 z2 >C2 DB, |
[V:3]E,2 z2 >E,2 E,E, |
[V:4]A,,2 z2 >A,,2 ^G,,G,, |
[V:1]A,/A/^C/A/ A,/A/C/A/ A,/G/_B,/G/ A,/G/C/G/ |
[V:2]^C2 z2 G2 z2 |
[V:3]E,2 z2 E2 z2 |
[V:4]A,,2 z2 ^C,2 z2 |
[V:1]D/F/A/d/ f/a/f/d/ A/d'/a/f/ e/a/g/e/ |
[V:2]F2 z2 >A2 AA |
[V:3]A,2 z2 >F2 GE |
[V:4]D,,2 z2 >D,2 ^C,C, |
[V:1]D/F/A/d/ f/a/f/d/ A/d'/a/f/ e/a/g/e/ |
[V:2]A2 z2 >A2 AA |
[V:3]F2 z2 >F2 GE |
[V:4]D,2 z2 >D,2 ^C,C, |
[V:1]d/d'/f/d'/ d/d'/f/d'/ d/c'/f/c'/ d/c'/f/c'/ |
[V:2]A2 z2 c2 z2 |
[V:3]F2 z2 F2 z2 |
[V:4]D,2 z2 D,2 z2 |
[V:1]^d/b/f/b/ ^d'/b/f/d/ B/d/f/d/ A/d/f/A/ |
[V:2][B8F8] |
[V:3]A8 |
[V:4]^D,8 |
[V:1]G/g/B/g/ G/g/B/g/ E/e/G/e/ E/e/G/e/ |
[V:2]B8 |
[V:3]G8 |
[V:4]E,4 E4 |
[V:1]C/E/C/E/ B,/E/B,/E/ ^A,/E/G/E/ G/E/G/E/ |
[V:2]C2 B,2 ^A,2 G2 |
[V:3]C2 B,2 ^A,2 E2 |
[V:4]C,2 B,,2 ^A,,4 |
[V:1]B,b bb d'c'2 ^a- |
[V:2]F2 A2 G2 g2 |
[V:3]^D2 F2 E2 e2 |
[V:4]B,,8- |
[V:1]ab2 ^g2 a2 f- |
[V:2]f2 =f2 e2 ^d2 |
[V:3]^d2 =d2 ^c2 =c2 |
[V:4]B,,8- |
[V:1]fg2 ^d2 e2 ^A- |
[V:2]e2 c2 B2 G2 |
[V:3]B2 A2 G2 E2 |
[V:4]B,,8- |
[V:1]AB2 A2 G2 E |
[V:2]F2 A2 G2 ^A,2 |
[V:3]^D2 ^D,2 E,2 G,2 |
[V:4]B,,8 |
[V:1]^DB, B,B, B,B BB |
[V:2]B,2 z2 >D2 DD |
[V:3]F,2 z2 >F,2 F,F, |
[V:4]B,,2 z2 >B,,2 B,,B,, |
[V:1]dc AF C2 z2 |
[V:2][D6C6] z2 |
[V:3]F,6 z2 |
[V:4]A,,6 z2 |
[V:1]C/D/C/D/ C/D/C/D/ Cz2 B,/D/ |
[V:2]A,A, A,A, A,z3 |
[V:3]D,D, D,D, D,z3 |
[V:4]F,,F,, F,,F,, F,,z3 |
[V:1]G2 >B2 d3 g |
[V:2]zD DD zB Bd |
[V:3]zB, B,B, zG, GB |
[V:4]G,,2 z2 G,,2 z2 |
[V:1]g2 f/g/e/f/ dz2 c |
[V:2]c4- cz2 A |
[V:3]A4- Az2 D |
[V:4]zD, DE Fz2 F, |
[V:1]c2 BA GG AA |
[V:2]A2 GF EB, ^CC |
[V:3]D2 >B,2 B,B, G,G, |
[V:4]G,2 >^D,2 E,E, A,,A,, |
[V:1]Dz EE/F/ Dz2 _B,/D/ |
[V:2]Dz ^CC Dz3 |
[V:3]F,z G,G, F,z3 |
[V:4]D,z A,,A,, D,z3 |
[V:1]G2 >_B2 d3 g |
[V:2]zD DD z_B Bd |
[V:3]z_B, B,B, zG, G_B |
[V:4]G,,2 z2 G,,2 z2 |
[V:1]g2 =f_e df _bd' |
[V:2]c4 _B2 z=f |
[V:3]z_E =FG F2 z2 |
[V:4]zA, A,A, _B,2 zB, |
[V:1]d'2 c'_b ac' d'_e' |
[V:2]g4 =f2 z2 |
[V:3]z_B c_d c2 z2 |
[V:4]_E2 =E2 =F2 z2 |
[V:1]_e'2 d'c' c'2 _ba/b/ |
[V:2]a6 gf/g/ |
[V:3]zc d_e dF G^C |
[V:4]F4 Gz3 |
[V:1]a2 z6 |
[V:2]f2 z4 G2 |
[V:3]D2 z4 _B,2 |
[V:4]zD,, D,,D,, =F,,_E,,2 ^C,, |
[V:1]z6 g2 |
[V:2]F2 z4 _B2 |
[V:3]A,D DD =F_E2 ^C- |
[V:4]D,,8- |
[V:1]f2 =f2 e2 _e2 |
[V:2]A2 ^G2 A2 F2 |
[V:3]CD2 B,2 C2 A,- |
[V:4]D,,8- |
[V:1]d2 ^c2 =c/D/c/_E/ c/D/c/E/ |
[V:2]G2 E2 D2 z_E |
[V:3]A,_B,2 G, F,2 zB, |
[V:4]D,,6 zG,, |
[V:1]c/D/F/A/ c/A/c/f/ a/f/d/c/ A/F/D/C/ |
[V:2]Dz Dz D2 zD |
[V:3]A,z A,z A,2 zA, |
[V:4]F,,z F,,z F,,2 zF,, |
[V:1]B,/G,/B,/D/ =F/G,/F/_A,/ F/G,/F/A,/ F/G,/F/A,/ |
[V:2]D2 z_A, G,A, G,A, |
[V:3]B,2 z_E, D,E, D,E, |
[V:4]G,,2 zC, B,,C, B,,C, |
[V:1]=F/G,/B,/D/ F/D/F/B/ d/B/=f/d/ B/G/F/D/ |
[V:2]G,z G,z G,2 zG, |
[V:3]D,z D,z D,2 zD, |
[V:4]B,,z B,,z B,,2 zB,, |
[V:1]E/C/E/G/ c/e/g/e/ d/B/b/a/ g/f/e/d/ |
[V:2]G,2 zE G2 zD |
[V:3]C,2 zC B,2 zD |
[V:4]C,2 zC, B,,2 zB,, |
[V:1]c/A/c'/a/ f/d/c/A/ F/D/C/D/ C/D/C/D/ |
[V:2]F2 z2 F4 |
[V:3]D2 z2 A,4 |
[V:4]A,,2 z2 D,4 |
[V:1]B,d'2 c' bd'2 c' |
[V:2]Gz ba gb2 a/f/ |
[V:3]G,/G,/B,/D/ G/D/A/D/ B/G,/B,/D/ G/D/A/D/ |
[V:4]G,2 z6 |
[V:1]b2 g'2 z^d'/e'/ d'/e'/c'/a/ |
[V:2]d/c/B/A/ G/F/E/D/ E2 z2 |
[V:3]B/A/G/F/ E/D/C/B,/ C2 z2 |
[V:4]z8 |
[V:1]g2 a2 gd2 c |
[V:2]Bg2 f gB2 A |
[V:3]DD DD G2 z2 |
[V:4]z4 z/G,,/B,,/D,/ G,/D,/A,/D,/ |
[V:1]Bd2 c B2 g2 |
[V:2]GB2 A G2 z2 |
[V:3]z2 >F2 d/c/B/A/ G/F/E/D/ |
[V:4]B,/G,,/B,,/D,/ G,/D,/A,/D,/ B,/A,/G,/F,/ E,/D,/C,/B,,/ |
[V:1]z/E/A/c/ e/c/B/A/ B/d/g/b/ d'f |
[V:2]z4 [B2G2] zd |
[V:3]E2 z2 D2 zA |
[V:4]C,2 z2 D,2 zD, |
[V:1]g6 zc/f/ |
[V:2]^c6 z2 |
[V:3]A6 z2 |
[V:4]E,6 z2 |
[V:1]az2 f/a/ c'z2 B,/D/ |
[V:2]z[cD] [cD]z2 [cD] [cD]z |
[V:3]zA Az2 A Az |
[V:4]zF, F,z2 F, F,z |
[V:1]G2 >B2 d3 g |
[V:2]zD DD zB Bd |
[V:3]zB, B,B, zG, GB |
[V:4]G,,2 z2 G,,2 z2 |
[V:1]g2 f/g/e/f/ d2 ^d2 |
[V:2]c8- |
[V:3]A8- |
[V:4]zD, DE F4- |
[V:1]e4 ze'2 d'/c'/ |
[V:2]c4 zc'2 b/a/ |
[V:3]A4 F,2 F2 |
[V:4]F4 z4 |
[V:1]bd'2 c'/b/ aa2 b/g/ |
[V:2]gb2 a/g/ g3 e |
[V:3]G2 B2 c2 ^c2 |
[V:4]z8 |
[V:1]fz2 =f2 e/d/ ce- |
[V:2]dd2 B/A/ ^GB2 A/=G/ |
[V:3]d2 B,2 >^G,2 A,C- |
[V:4]D,,8- |
[V:1]ed/c/ Bd2 c/B/ Ac- |
[V:2]FA2 G/F/ EG2 F/E/ |
[V:3]CF, G,B,2 E, F,A,- |
[V:4]D,,8- |
[V:1]cB/A/ GB2 A/B/ AG |
[V:2]DF2 E/D/ ^C4 |
[V:3]A,D, E,G,2 F,/G,/ F,E, |
[V:4]D,,8 |
[V:1]F/D/F/A/ c/A/c/f/ a/f/c'/a/ f/d/c/A/ |
[V:2]Dz FA c4 |
[V:3]D,z A,z F4 |
[V:4]D,,z D,,z D,,4 |
[V:1]B/b/f/g/ ^d/e/c/A/ Gz2 D |
[V:2]Bz7 |
[V:3]Gz Gz Bz2 F |
[V:4]G,,z C,z D,z2 D, |
[V:1]BB GG F>A cA/F/ |
[V:2]D8- |
[V:3]G2 B,2 C4 |
[V:4]G,,8- |
[V:1]G>B dd d/c/c/B/ B/A/A/d/ |
[V:2]D4 E4- |
[V:3]B,4 G,4- |
[V:4]G,,2 >B,,2 C,4- |
[V:1]d/c/c/B/ B/A/A/d/ d/c/c/B/ B/A/A/e/ |
[V:2]E8 |
[V:3]G,4 ^G,3 A, |
[V:4]C,4 C,4 |
[V:1]e4 G2 AG/A/ |
[V:2]G6 F2 |
[V:3]_B,4 =B,2 C2 |
[V:4]^C,4 D,4 |
[V:1]Gz A,G,/A,/ G,G, A,G,/A,/ |
[V:2]Gz c'c' bz c'c' |
[V:3]B,z dd dz dd |
[V:4]G,,z FF Gz FF |
[V:1]G,z A,G,/A,/ G,z3 |]
[V:2]bz c'z bz3 |]
[V:3]dz dz dz3 |]
[V:4]Gz Fz Gz3 |]

